Systematic/src/svg/menu_record.svg

<svg xmlns="http://www.w3.org/2000/svg" xml:space="preserve" width="312.974" height="266.667"><defs><clipPath id="a" clipPathUnits="userSpaceOnUse"><path d="M0 256h256V0H0Z"/></clipPath><clipPath id="b" clipPathUnits="userSpaceOnUse"><path d="M10.635 228h234.73V28H10.635Z"/></clipPath><clipPath id="c" clipPathUnits="userSpaceOnUse"><path d="M0 256h256V0H0Z"/></clipPath></defs><g clip-path="url(#a)" transform="matrix(1.33333 0 0 -1.33333 -14.18 304)"><g clip-path="url(#b)" style="opacity:.5"><path d="M0 0h-112.992l-2.338-3.84-56-92-2.532-4.16 2.532-4.159 56-92 2.338-3.841H0l2.338 3.841 56 92L60.869-100l-2.531 4.16-56 92z" style="fill:#fff;fill-opacity:1;fill-rule:nonzero;stroke:none" transform="translate(184.496 228)"/></g></g><path d="M0 0h-104l-56-92 56-92H0l56 92z" style="fill:#737373;fill-opacity:1;fill-rule:nonzero;stroke:none" transform="matrix(1.33333 0 0 -1.33333 225.82 10.667)"/><g clip-path="url(#c)" transform="matrix(1.33333 0 0 -1.33333 -14.18 304)"><path d="M0 0c-6.617 0-12 5.383-12 12s5.383 12 12 12 12-5.383 12-12S6.617 0 0 0m64 0c-6.617 0-12 5.383-12 12s5.383 12 12 12 12-5.383 12-12S70.617 0 64 0m0 40c-11.832 0-22.441-7.5-26.399-18.663A27.9 27.9 0 0 1 36 12c0-4.184.943-8.275 2.725-12h-13.45A27.8 27.8 0 0 1 28 12c0 15.439-12.561 28-28 28s-28-12.561-28-28 12.561-28 28-28h64c15.439 0 28 12.561 28 28S79.439 40 64 40" style="fill:#404040;fill-opacity:1;fill-rule:nonzero;stroke:none" transform="translate(96 116)"/><path d="M0 0c-8.837 0-16 7.163-16 16s7.163 16 16 16 16-7.164 16-16S8.837 0 0 0m-80 16c0 8.836 7.164 16 16 16s16-7.164 16-16-7.164-16-16-16-16 7.163-16 16M0 40c-10.43 0-19.327-6.687-22.629-16A23.9 23.9 0 0 1-24 16c0-6.15 2.345-11.749 6.162-16h-28.324C-42.345 4.251-40 9.85-40 16c0 13.233-10.766 24-24 24s-24-10.767-24-24S-77.233-8-64-8H0C13.233-8 24 2.767 24 16S13.233 40 0 40" style="fill:#fff;fill-opacity:1;fill-rule:nonzero;stroke:none" transform="translate(160 112)"/></g></svg>

<?xml version="1.0" encoding="UTF-8" standalone="no"?>
<svg
   xmlns:dc="http://purl.org/dc/elements/1.1/"
   xmlns:cc="http://creativecommons.org/ns#"
   xmlns:rdf="http://www.w3.org/1999/02/22-rdf-syntax-ns#"
   xmlns:svg="http://www.w3.org/2000/svg"
   xmlns="http://www.w3.org/2000/svg"
   viewBox="0 0 312.974 266.66665"
   height="266.66666"
   width="312.974"
   xml:space="preserve"
   id="svg2"
   version="1.1"><metadata
     id="metadata8"><rdf:RDF><cc:Work
         rdf:about=""><dc:format>image/svg+xml</dc:format><dc:type
           rdf:resource="http://purl.org/dc/dcmitype/StillImage" /></cc:Work></rdf:RDF></metadata><defs
     id="defs6"><clipPath
       id="clipPath18"
       clipPathUnits="userSpaceOnUse"><path
         id="path16"
         d="M 0,256 H 256 V 0 H 0 Z" /></clipPath><clipPath
       id="clipPath26"
       clipPathUnits="userSpaceOnUse"><path
         id="path24"
         d="M 10.6345,228 H 245.365 V 28 H 10.6345 Z" /></clipPath><clipPath
       id="clipPath46"
       clipPathUnits="userSpaceOnUse"><path
         id="path44"
         d="M 0,256 H 256 V 0 H 0 Z" /></clipPath></defs><g
     transform="matrix(1.3333333,0,0,-1.3333333,-14.179333,303.99999)"
     id="g10"><g
       id="g12"><g
         clip-path="url(#clipPath18)"
         id="g14"><g
           id="g20"><g
             id="g22" /><g
             id="g34"><g
               style="opacity:0.5"
               id="g32"
               clip-path="url(#clipPath26)"><g
                 id="g30"
                 transform="translate(184.4961,228)"><path
                   id="path28"
                   style="fill:#ffffff;fill-opacity:1;fill-rule:nonzero;stroke:none"
                   d="m 0,0 h -4.496 -104 -4.496 l -2.338,-3.84 -56,-92 -2.532,-4.16 2.532,-4.159 56,-92 2.338,-3.841 h 4.496 104 H 0 l 2.338,3.841 56,92 2.531,4.159 -2.531,4.16 -56,92 z" /></g></g></g></g></g></g><g
       transform="translate(180,220)"
       id="g36"><path
         id="path38"
         style="fill:#737373;fill-opacity:1;fill-rule:nonzero;stroke:none"
         d="m 0,0 h -104 l -56,-92 56,-92 H 0 l 56,92 z" /></g><g
       id="g40"><g
         clip-path="url(#clipPath46)"
         id="g42"><g
           transform="translate(96,116)"
           id="g48"><path
             id="path50"
             style="fill:#404040;fill-opacity:1;fill-rule:nonzero;stroke:none"
             d="m 0,0 c -6.617,0 -12,5.383 -12,12 0,6.617 5.383,12 12,12 C 6.617,24 12,18.617 12,12 12,5.383 6.617,0 0,0 M 64,0 C 57.383,0 52,5.383 52,12 52,18.617 57.383,24 64,24 70.617,24 76,18.617 76,12 76,5.383 70.617,0 64,0 m 0,40 C 52.168,40 41.559,32.5 37.601,21.337 36.539,18.341 36,15.2 36,12 36,7.816 36.943,3.725 38.725,0 H 25.275 C 27.056,3.725 28,7.816 28,12 28,27.439 15.439,40 0,40 -15.439,40 -28,27.439 -28,12 -28,-3.439 -15.439,-16 0,-16 h 64 c 15.439,0 28,12.561 28,28 0,15.439 -12.561,28 -28,28" /></g><g
           transform="translate(160,112)"
           id="g52"><path
             id="path54"
             style="fill:#ffffff;fill-opacity:1;fill-rule:nonzero;stroke:none"
             d="m 0,0 c -8.837,0 -16,7.163 -16,16 0,8.836 7.163,16 16,16 C 8.837,32 16,24.836 16,16 16,7.163 8.837,0 0,0 m -80,16 c 0,8.836 7.164,16 16,16 8.836,0 16,-7.164 16,-16 0,-8.837 -7.164,-16 -16,-16 -8.836,0 -16,7.163 -16,16 M 0,40 C -10.43,40 -19.327,33.313 -22.629,24 -23.517,21.497 -24,18.804 -24,16 -24,9.85 -21.655,4.251 -17.838,0 H -24 -46.162 C -42.345,4.251 -40,9.85 -40,16 -40,29.233 -50.766,40 -64,40 -77.233,40 -88,29.233 -88,16 -88,2.767 -77.233,-8 -64,-8 H 0 C 13.233,-8 24,2.767 24,16 24,29.233 13.233,40 0,40" /></g></g></g></g></svg>
